src/img/sbb/gps_12_large.svg

<svg xmlns="http://www.w3.org/2000/svg" width="48" height="48" viewBox="0 0 48 48">
  <path fill="none" stroke="#000" stroke-width="2" d="M39,25.0004 C39,32.7524 32.754,39.0004 25,39.0004 C17.246,39.0004 11,32.7524 11,25.0004 C11,17.2464 17.246,11.0004 25,11.0004 C32.754,11.0004 39,17.2464 39,25.0004 Z M33,25.0004 C33,29.4164 29.418,33.0004 25,33.0004 C20.582,33.0004 17,29.4164 17,25.0004 C17,20.5824 20.582,17.0004 25,17.0004 C29.418,17.0004 33,20.5824 33,25.0004 Z M11.0078,25.0004 L5.9998,25.0004 M39.0078,24.9916 L43.9978,24.9916 M25.0078,38.9994 L25.0078,43.9994 M25.0078,11.0004 L25.0078,6.0004"/>
</svg>

<svg xmlns="http://www.w3.org/2000/svg" viewBox="0 0 48 48"><path fill="none" stroke="#000" stroke-width="2" d="M39 25c0 7.752-6.246 14-14 14s-14-6.248-14-14c0-7.754 6.246-14 14-14s14 6.246 14 14zm-6 0c0 4.416-3.582 8-8 8s-8-3.584-8-8a8 8 0 0116 0zm-21.992 0H6m33.008-.008h4.99m-18.99 14.007v5m0-32.999V6"/></svg>
